report_00007_2020-12-11T15:55:29.892Z/max-potential-fid/comparison/line/1_vs_2.svg

<svg width="640" height="500" xmlns="http://www.w3.org/2000/svg" xmlns:xlink="http://www.w3.org/1999/xlink"><path fill="#fff" d="M0 0h640v500H0z"/><defs><path id="d" stroke-width=".222" stroke="currentColor" d="M-1-1h2v2h-2z"/><path id="b" stroke-width=".222" stroke="currentColor" d="M0-1.33l-1.33 2h2.66z"/><path id="f" stroke-width=".222" stroke="currentColor" d="M0 1.33L1.265.411.782-1.067l-1.564-.009-.483 1.487z"/><use xlink:href="#b" id="c" stroke="currentColor" transform="rotate(180)"/><use xlink:href="#d" id="e" stroke="currentColor" transform="rotate(45)"/><circle id="a" stroke-width=".222" stroke="currentColor" cx="0" cy="0" r="1"/></defs><g fill="none" color="#000" stroke="currentColor"><path stroke="#000" d="M53.9 411.3h9m552.1 0h-9"/><text transform="translate(45.6 415.2)" stroke="none" fill="#000" font-family="Arial" font-size="12" text-anchor="end"><tspan>270</tspan></text></g><g fill="none" color="#000" stroke="currentColor"><path stroke="#000" d="M53.9 367h9m552.1 0h-9"/><text transform="translate(45.6 370.9)" stroke="none" fill="#000" font-family="Arial" font-size="12" text-anchor="end"><tspan>280</tspan></text></g><g fill="none" color="#000" stroke="currentColor"><path stroke="#000" d="M53.9 322.7h9m552.1 0h-9"/><text transform="translate(45.6 326.6)" stroke="none" fill="#000" font-family="Arial" font-size="12" text-anchor="end"><tspan>290</tspan></text></g><g fill="none" color="#000" stroke="currentColor"><path stroke="#000" d="M53.9 278.4h9m552.1 0h-9"/><text transform="translate(45.6 282.3)" stroke="none" fill="#000" font-family="Arial" font-size="12" text-anchor="end"><tspan>300</tspan></text></g><g fill="none" color="#000" stroke="currentColor"><path stroke="#000" d="M53.9 234.1h9m552.1 0h-9"/><text transform="translate(45.6 238)" stroke="none" fill="#000" font-family="Arial" font-size="12" text-anchor="end"><tspan>310</tspan></text></g><g fill="none" color="#000" stroke="currentColor"><path stroke="#000" d="M53.9 189.8h9m552.1 0h-9"/><text transform="translate(45.6 193.7)" stroke="none" fill="#000" font-family="Arial" font-size="12" text-anchor="end"><tspan>320</tspan></text></g><g fill="none" color="#000" stroke="currentColor"><path stroke="#000" d="M53.9 145.6h9m552.1 0h-9"/><text transform="translate(45.6 149.5)" stroke="none" fill="#000" font-family="Arial" font-size="12" text-anchor="end"><tspan>330</tspan></text></g><g fill="none" color="#000" stroke="currentColor"><path stroke="#000" d="M53.9 101.3h9m552.1 0h-9"/><text transform="translate(45.6 105.2)" stroke="none" fill="#000" font-family="Arial" font-size="12" text-anchor="end"><tspan>340</tspan></text></g><g fill="none" color="#000" stroke="currentColor"><path stroke="#000" d="M53.9 57h9M615 57h-9"/><text transform="translate(45.6 60.9)" stroke="none" fill="#000" font-family="Arial" font-size="12" text-anchor="end"><tspan>350</tspan></text></g><g fill="none" color="#000" stroke="currentColor"><path stroke="#000" d="M53.9 428v-9m0-400.9v9"/><text transform="translate(53.9 449.9)" stroke="none" fill="#000" font-family="Arial" font-size="12" text-anchor="middle"><tspan>0</tspan></text></g><g fill="none" color="#000" stroke="currentColor"><path stroke="#000" d="M110.6 428v-9m0-400.9v9"/><text transform="translate(110.6 449.9)" stroke="none" fill="#000" font-family="Arial" font-size="12" text-anchor="middle"><tspan>10</tspan></text></g><g fill="none" color="#000" stroke="currentColor"><path stroke="#000" d="M167.3 428v-9m0-400.9v9"/><text transform="translate(167.3 449.9)" stroke="none" fill="#000" font-family="Arial" font-size="12" text-anchor="middle"><tspan>20</tspan></text></g><g fill="none" color="#000" stroke="currentColor"><path stroke="#000" d="M223.9 428v-9m0-400.9v9"/><text transform="translate(223.9 449.9)" stroke="none" fill="#000" font-family="Arial" font-size="12" text-anchor="middle"><tspan>30</tspan></text></g><g fill="none" color="#000" stroke="currentColor"><path stroke="#000" d="M280.6 428v-9m0-400.9v9"/><text transform="translate(280.6 449.9)" stroke="none" fill="#000" font-family="Arial" font-size="12" text-anchor="middle"><tspan>40</tspan></text></g><g fill="none" color="#000" stroke="currentColor"><path stroke="#000" d="M337.3 428v-9m0-400.9v9"/><text transform="translate(337.3 449.9)" stroke="none" fill="#000" font-family="Arial" font-size="12" text-anchor="middle"><tspan>50</tspan></text></g><g fill="none" color="#000" stroke="currentColor"><path stroke="#000" d="M394 428v-9m0-400.9v9"/><text transform="translate(394 449.9)" stroke="none" fill="#000" font-family="Arial" font-size="12" text-anchor="middle"><tspan>60</tspan></text></g><g fill="none" color="#000" stroke="currentColor"><path stroke="#000" d="M450.6 428v-9m0-400.9v9"/><text transform="translate(450.6 449.9)" stroke="none" fill="#000" font-family="Arial" font-size="12" text-anchor="middle"><tspan>70</tspan></text></g><g fill="none" color="#000" stroke="currentColor"><path stroke="#000" d="M507.3 428v-9m0-400.9v9"/><text transform="translate(507.3 449.9)" stroke="none" fill="#000" font-family="Arial" font-size="12" text-anchor="middle"><tspan>80</tspan></text></g><g fill="none" color="#000" stroke="currentColor"><path stroke="#000" d="M564 428v-9m0-400.9v9"/><text transform="translate(564 449.9)" stroke="none" fill="#000" font-family="Arial" font-size="12" text-anchor="middle"><tspan>90</tspan></text></g><path stroke="#000" d="M53.9 18.1V428H615V18.1H53.9z" fill="none" color="#000"/><text transform="translate(275.6 467.9)" stroke="none" fill="#000" font-family="Arial" font-size="12" text-anchor="end" color="#000"><tspan>pages</tspan></text><path stroke="#9400D3" d="M283.9 464h42.2M53.9 26l5.7 323.3 5.6 4.4 5.7 4.4 5.7-4.4 5.6-4.4 5.7-31 5.7 22.1 5.6-97.4 5.7 75.3 5.7 26.5 5.6 31 5.7-57.5 5.7-26.6 5.6 101.8 5.7-70.8h5.7l5.7 48.7 5.6-70.9 5.7 62 5.7-39.8 5.6 35.4 5.7-31 5.7 35.4 5.6-39.8 5.7 13.3 5.7 26.5 5.6 8.9 5.7-35.4 5.7 8.8 5.6-44.3 5.7-31 5.7 66.5 5.6-22.2 5.7 39.9 5.7-57.6 5.6 53.2 5.7-22.2 5.7-31 5.6-13.3 5.7 44.3 5.7 4.4 5.6 8.9 5.7-137.3 5.7 97.4 5.6 101.9 5.7-66.4 5.7-8.9 5.6 4.4 5.7-39.8 5.7 53.1 5.7 17.7 5.6 13.3 5.7-48.7 5.7-13.3 5.6-22.1 5.7 70.8 5.7-8.8 5.6-44.3 5.7 17.7 5.7-57.6 5.6 93 5.7-57.5 5.7 57.5 5.6-79.7 5.7 66.5 5.7-62 5.6 57.5 5.7-39.8 5.7 4.4 5.6 4.4 5.7 44.3 5.7-4.4 5.6-84.2 5.7 48.8 5.7 13.2 5.6-66.4 5.7 48.7 5.7-4.4 5.6 35.4 5.7 8.9 5.7-88.6 5.6 75.3 5.7-17.7 5.7 31 5.7-26.6 5.6 8.9 5.7 17.7 5.7-53.2 5.6 62 5.7 8.9 5.7-4.4 5.6-57.6 5.7 13.3h5.7l5.6-17.7 5.7 17.7h5.7l5.6 8.8 5.7-31" fill="none" color="#000"/><text transform="translate(275.6 485.9)" stroke="none" fill="#000" font-family="Arial" font-size="12" text-anchor="end" color="#000"><tspan>pages+cached</tspan></text><path stroke="#009E73" d="M283.9 482h42.2M53.9 340.4l5.7-53.1 5.6 84.1 5.7-79.7 5.7 22.1 5.6-186 5.7 292.3 5.7-128.4L99.2 398l5.7-101.9 5.7 124 5.6-13.3 5.7-119.5 5.7-124 5.6 146.1 5.7-17.7 5.7 110.7 5.7-106.3 5.6 4.4 5.7 106.3 5.7-119.5h11.3l5.7 97.4 5.6-106.3 5.7-31 5.7 150.6 5.6-106.3 5.7 8.8 5.7 97.5 5.6-124 5.7 110.7 5.7 17.7 5.6 4.4 5.7 4.5 5.7-150.6 5.6 66.4 5.7-274.5 5.7 305.5h5.6l5.7-62 5.7 13.3 5.6-22.1 5.7-84.2 5.7 190.4 5.6-128.4 5.7 146.2 5.7-31 5.6 22.1 5.7-110.7 5.7 119.6L343 181l5.6 225.8 5.7-13.3 5.7-106.2 5.6 97.4H377l5.6-93 5.7 4.4 5.7 115.2 5.6-26.6 5.7 17.7L411 367l5.6-84.2 5.7-8.8 5.7 137.3 5.6-110.8 5.7 79.8 5.7 22.1h5.6l5.7-8.9 5.7-146.1 5.6 66.4 5.7-13.3 5.7 88.6 5.6-53.1 5.7 53.1 5.7 13.3 5.6-97.4 5.7-35.5L513 305l5.6-17.7 5.7 115.1 5.7-13.3 5.7 22.2 5.6-8.9h5.7l5.7-8.9 5.6 13.3 5.7-119.5 5.7 110.7 5.6 8.8 5.7-4.4 5.7-106.3 5.6 106.3h5.7l5.7-8.9 5.6-110.7h5.7" fill="none" color="#000"/><text transform="translate(467.2 467.9)" stroke="none" fill="#000" font-family="Arial" font-size="12" text-anchor="end" color="#000"><tspan>score p10=130</tspan></text><path stroke="#56B4E9" d="M475.5 464h42.2" fill="none" color="#000"/><g><text transform="translate(467.2 485.9)" stroke="none" fill="#000" font-family="Arial" font-size="12" text-anchor="end" color="#000"><tspan>score median=250</tspan></text><path stroke="#E69F00" d="M475.5 482h42.2" fill="none" color="#000"/></g><g fill="none" color="#000" stroke="currentColor"><path stroke="#000" d="M53.9 18.1V428H615V18.1H53.9z"/></g></svg>

<?xml version="1.0" encoding="utf-8"  standalone="no"?>
<svg 
 width="640" height="500"
 viewBox="0 0 640 500"
 xmlns="http://www.w3.org/2000/svg"
 xmlns:xlink="http://www.w3.org/1999/xlink"
>

<title>Gnuplot</title>
<desc>Produced by GNUPLOT 5.4 patchlevel 0 </desc>

<g id="gnuplot_canvas">

<rect x="0" y="0" width="640" height="500" fill="#ffffff"/>
<defs>

	<circle id='gpDot' r='0.5' stroke-width='0.5' stroke='currentColor'/>
	<path id='gpPt0' stroke-width='0.222' stroke='currentColor' d='M-1,0 h2 M0,-1 v2'/>
	<path id='gpPt1' stroke-width='0.222' stroke='currentColor' d='M-1,-1 L1,1 M1,-1 L-1,1'/>
	<path id='gpPt2' stroke-width='0.222' stroke='currentColor' d='M-1,0 L1,0 M0,-1 L0,1 M-1,-1 L1,1 M-1,1 L1,-1'/>
	<rect id='gpPt3' stroke-width='0.222' stroke='currentColor' x='-1' y='-1' width='2' height='2'/>
	<rect id='gpPt4' stroke-width='0.222' stroke='currentColor' fill='currentColor' x='-1' y='-1' width='2' height='2'/>
	<circle id='gpPt5' stroke-width='0.222' stroke='currentColor' cx='0' cy='0' r='1'/>
	<use xlink:href='#gpPt5' id='gpPt6' fill='currentColor' stroke='none'/>
	<path id='gpPt7' stroke-width='0.222' stroke='currentColor' d='M0,-1.33 L-1.33,0.67 L1.33,0.67 z'/>
	<use xlink:href='#gpPt7' id='gpPt8' fill='currentColor' stroke='none'/>
	<use xlink:href='#gpPt7' id='gpPt9' stroke='currentColor' transform='rotate(180)'/>
	<use xlink:href='#gpPt9' id='gpPt10' fill='currentColor' stroke='none'/>
	<use xlink:href='#gpPt3' id='gpPt11' stroke='currentColor' transform='rotate(45)'/>
	<use xlink:href='#gpPt11' id='gpPt12' fill='currentColor' stroke='none'/>
	<path id='gpPt13' stroke-width='0.222' stroke='currentColor' d='M0,1.330 L1.265,0.411 L0.782,-1.067 L-0.782,-1.076 L-1.265,0.411 z'/>
	<use xlink:href='#gpPt13' id='gpPt14' fill='currentColor' stroke='none'/>
	<filter id='textbox' filterUnits='objectBoundingBox' x='0' y='0' height='1' width='1'>
	  <feFlood flood-color='#FFFFFF' flood-opacity='1' result='bgnd'/>
	  <feComposite in='SourceGraphic' in2='bgnd' operator='atop'/>
	</filter>
	<filter id='greybox' filterUnits='objectBoundingBox' x='0' y='0' height='1' width='1'>
	  <feFlood flood-color='lightgrey' flood-opacity='1' result='grey'/>
	  <feComposite in='SourceGraphic' in2='grey' operator='atop'/>
	</filter>
</defs>
<g fill="none" color="#FFFFFF" stroke="black" stroke-width="1.00" stroke-linecap="butt" stroke-linejoin="miter">
</g>
<g fill="none" color="black" stroke="currentColor" stroke-width="1.00" stroke-linecap="butt" stroke-linejoin="miter">
	<path stroke='black'  d='M53.9,411.3 L62.9,411.3 M615.0,411.3 L606.0,411.3  '/>	<g transform="translate(45.6,415.2)" stroke="none" fill="black" font-family="Arial" font-size="12.00"  text-anchor="end">
		<text><tspan font-family="Arial" > 270</tspan></text>
	</g>
</g>
<g fill="none" color="black" stroke="currentColor" stroke-width="1.00" stroke-linecap="butt" stroke-linejoin="miter">
	<path stroke='black'  d='M53.9,367.0 L62.9,367.0 M615.0,367.0 L606.0,367.0  '/>	<g transform="translate(45.6,370.9)" stroke="none" fill="black" font-family="Arial" font-size="12.00"  text-anchor="end">
		<text><tspan font-family="Arial" > 280</tspan></text>
	</g>
</g>
<g fill="none" color="black" stroke="currentColor" stroke-width="1.00" stroke-linecap="butt" stroke-linejoin="miter">
	<path stroke='black'  d='M53.9,322.7 L62.9,322.7 M615.0,322.7 L606.0,322.7  '/>	<g transform="translate(45.6,326.6)" stroke="none" fill="black" font-family="Arial" font-size="12.00"  text-anchor="end">
		<text><tspan font-family="Arial" > 290</tspan></text>
	</g>
</g>
<g fill="none" color="black" stroke="currentColor" stroke-width="1.00" stroke-linecap="butt" stroke-linejoin="miter">
	<path stroke='black'  d='M53.9,278.4 L62.9,278.4 M615.0,278.4 L606.0,278.4  '/>	<g transform="translate(45.6,282.3)" stroke="none" fill="black" font-family="Arial" font-size="12.00"  text-anchor="end">
		<text><tspan font-family="Arial" > 300</tspan></text>
	</g>
</g>
<g fill="none" color="black" stroke="currentColor" stroke-width="1.00" stroke-linecap="butt" stroke-linejoin="miter">
	<path stroke='black'  d='M53.9,234.1 L62.9,234.1 M615.0,234.1 L606.0,234.1  '/>	<g transform="translate(45.6,238.0)" stroke="none" fill="black" font-family="Arial" font-size="12.00"  text-anchor="end">
		<text><tspan font-family="Arial" > 310</tspan></text>
	</g>
</g>
<g fill="none" color="black" stroke="currentColor" stroke-width="1.00" stroke-linecap="butt" stroke-linejoin="miter">
	<path stroke='black'  d='M53.9,189.8 L62.9,189.8 M615.0,189.8 L606.0,189.8  '/>	<g transform="translate(45.6,193.7)" stroke="none" fill="black" font-family="Arial" font-size="12.00"  text-anchor="end">
		<text><tspan font-family="Arial" > 320</tspan></text>
	</g>
</g>
<g fill="none" color="black" stroke="currentColor" stroke-width="1.00" stroke-linecap="butt" stroke-linejoin="miter">
	<path stroke='black'  d='M53.9,145.6 L62.9,145.6 M615.0,145.6 L606.0,145.6  '/>	<g transform="translate(45.6,149.5)" stroke="none" fill="black" font-family="Arial" font-size="12.00"  text-anchor="end">
		<text><tspan font-family="Arial" > 330</tspan></text>
	</g>
</g>
<g fill="none" color="black" stroke="currentColor" stroke-width="1.00" stroke-linecap="butt" stroke-linejoin="miter">
	<path stroke='black'  d='M53.9,101.3 L62.9,101.3 M615.0,101.3 L606.0,101.3  '/>	<g transform="translate(45.6,105.2)" stroke="none" fill="black" font-family="Arial" font-size="12.00"  text-anchor="end">
		<text><tspan font-family="Arial" > 340</tspan></text>
	</g>
</g>
<g fill="none" color="black" stroke="currentColor" stroke-width="1.00" stroke-linecap="butt" stroke-linejoin="miter">
	<path stroke='black'  d='M53.9,57.0 L62.9,57.0 M615.0,57.0 L606.0,57.0  '/>	<g transform="translate(45.6,60.9)" stroke="none" fill="black" font-family="Arial" font-size="12.00"  text-anchor="end">
		<text><tspan font-family="Arial" > 350</tspan></text>
	</g>
</g>
<g fill="none" color="black" stroke="currentColor" stroke-width="1.00" stroke-linecap="butt" stroke-linejoin="miter">
	<path stroke='black'  d='M53.9,428.0 L53.9,419.0 M53.9,18.1 L53.9,27.1  '/>	<g transform="translate(53.9,449.9)" stroke="none" fill="black" font-family="Arial" font-size="12.00"  text-anchor="middle">
		<text><tspan font-family="Arial" > 0</tspan></text>
	</g>
</g>
<g fill="none" color="black" stroke="currentColor" stroke-width="1.00" stroke-linecap="butt" stroke-linejoin="miter">
	<path stroke='black'  d='M110.6,428.0 L110.6,419.0 M110.6,18.1 L110.6,27.1  '/>	<g transform="translate(110.6,449.9)" stroke="none" fill="black" font-family="Arial" font-size="12.00"  text-anchor="middle">
		<text><tspan font-family="Arial" > 10</tspan></text>
	</g>
</g>
<g fill="none" color="black" stroke="currentColor" stroke-width="1.00" stroke-linecap="butt" stroke-linejoin="miter">
	<path stroke='black'  d='M167.3,428.0 L167.3,419.0 M167.3,18.1 L167.3,27.1  '/>	<g transform="translate(167.3,449.9)" stroke="none" fill="black" font-family="Arial" font-size="12.00"  text-anchor="middle">
		<text><tspan font-family="Arial" > 20</tspan></text>
	</g>
</g>
<g fill="none" color="black" stroke="currentColor" stroke-width="1.00" stroke-linecap="butt" stroke-linejoin="miter">
	<path stroke='black'  d='M223.9,428.0 L223.9,419.0 M223.9,18.1 L223.9,27.1  '/>	<g transform="translate(223.9,449.9)" stroke="none" fill="black" font-family="Arial" font-size="12.00"  text-anchor="middle">
		<text><tspan font-family="Arial" > 30</tspan></text>
	</g>
</g>
<g fill="none" color="black" stroke="currentColor" stroke-width="1.00" stroke-linecap="butt" stroke-linejoin="miter">
	<path stroke='black'  d='M280.6,428.0 L280.6,419.0 M280.6,18.1 L280.6,27.1  '/>	<g transform="translate(280.6,449.9)" stroke="none" fill="black" font-family="Arial" font-size="12.00"  text-anchor="middle">
		<text><tspan font-family="Arial" > 40</tspan></text>
	</g>
</g>
<g fill="none" color="black" stroke="currentColor" stroke-width="1.00" stroke-linecap="butt" stroke-linejoin="miter">
	<path stroke='black'  d='M337.3,428.0 L337.3,419.0 M337.3,18.1 L337.3,27.1  '/>	<g transform="translate(337.3,449.9)" stroke="none" fill="black" font-family="Arial" font-size="12.00"  text-anchor="middle">
		<text><tspan font-family="Arial" > 50</tspan></text>
	</g>
</g>
<g fill="none" color="black" stroke="currentColor" stroke-width="1.00" stroke-linecap="butt" stroke-linejoin="miter">
	<path stroke='black'  d='M394.0,428.0 L394.0,419.0 M394.0,18.1 L394.0,27.1  '/>	<g transform="translate(394.0,449.9)" stroke="none" fill="black" font-family="Arial" font-size="12.00"  text-anchor="middle">
		<text><tspan font-family="Arial" > 60</tspan></text>
	</g>
</g>
<g fill="none" color="black" stroke="currentColor" stroke-width="1.00" stroke-linecap="butt" stroke-linejoin="miter">
	<path stroke='black'  d='M450.6,428.0 L450.6,419.0 M450.6,18.1 L450.6,27.1  '/>	<g transform="translate(450.6,449.9)" stroke="none" fill="black" font-family="Arial" font-size="12.00"  text-anchor="middle">
		<text><tspan font-family="Arial" > 70</tspan></text>
	</g>
</g>
<g fill="none" color="black" stroke="currentColor" stroke-width="1.00" stroke-linecap="butt" stroke-linejoin="miter">
	<path stroke='black'  d='M507.3,428.0 L507.3,419.0 M507.3,18.1 L507.3,27.1  '/>	<g transform="translate(507.3,449.9)" stroke="none" fill="black" font-family="Arial" font-size="12.00"  text-anchor="middle">
		<text><tspan font-family="Arial" > 80</tspan></text>
	</g>
</g>
<g fill="none" color="black" stroke="currentColor" stroke-width="1.00" stroke-linecap="butt" stroke-linejoin="miter">
	<path stroke='black'  d='M564.0,428.0 L564.0,419.0 M564.0,18.1 L564.0,27.1  '/>	<g transform="translate(564.0,449.9)" stroke="none" fill="black" font-family="Arial" font-size="12.00"  text-anchor="middle">
		<text><tspan font-family="Arial" > 90</tspan></text>
	</g>
</g>
<g fill="none" color="black" stroke="currentColor" stroke-width="1.00" stroke-linecap="butt" stroke-linejoin="miter">
</g>
<g fill="none" color="black" stroke="currentColor" stroke-width="1.00" stroke-linecap="butt" stroke-linejoin="miter">
	<path stroke='black'  d='M53.9,18.1 L53.9,428.0 L615.0,428.0 L615.0,18.1 L53.9,18.1 Z  '/></g>
<g fill="none" color="black" stroke="currentColor" stroke-width="1.00" stroke-linecap="butt" stroke-linejoin="miter">
</g>
	<g id="gnuplot_plot_1" ><title>pages</title>
<g fill="none" color="black" stroke="currentColor" stroke-width="1.00" stroke-linecap="butt" stroke-linejoin="miter">
	<g transform="translate(275.6,467.9)" stroke="none" fill="black" font-family="Arial" font-size="12.00"  text-anchor="end">
		<text><tspan font-family="Arial" >pages</tspan></text>
	</g>
</g>
<g fill="none" color="black" stroke="currentColor" stroke-width="1.00" stroke-linecap="butt" stroke-linejoin="miter">
	<path stroke='rgb(148,   0, 211)'  d='M283.9,464.0 L326.1,464.0 M53.9,26.0 L59.6,349.3 L65.2,353.7 L70.9,358.1 L76.6,353.7 L82.2,349.3
		L87.9,318.3 L93.6,340.4 L99.2,243.0 L104.9,318.3 L110.6,344.8 L116.2,375.8 L121.9,318.3 L127.6,291.7
		L133.2,393.5 L138.9,322.7 L144.6,322.7 L150.3,371.4 L155.9,300.5 L161.6,362.5 L167.3,322.7 L172.9,358.1
		L178.6,327.1 L184.3,362.5 L189.9,322.7 L195.6,336.0 L201.3,362.5 L206.9,371.4 L212.6,336.0 L218.3,344.8
		L223.9,300.5 L229.6,269.5 L235.3,336.0 L240.9,313.8 L246.6,353.7 L252.3,296.1 L257.9,349.3 L263.6,327.1
		L269.3,296.1 L274.9,282.8 L280.6,327.1 L286.3,331.5 L291.9,340.4 L297.6,203.1 L303.3,300.5 L308.9,402.4
		L314.6,336.0 L320.3,327.1 L325.9,331.5 L331.6,291.7 L337.3,344.8 L343.0,362.5 L348.6,375.8 L354.3,327.1
		L360.0,313.8 L365.6,291.7 L371.3,362.5 L377.0,353.7 L382.6,309.4 L388.3,327.1 L394.0,269.5 L399.6,362.5
		L405.3,305.0 L411.0,362.5 L416.6,282.8 L422.3,349.3 L428.0,287.3 L433.6,344.8 L439.3,305.0 L445.0,309.4
		L450.6,313.8 L456.3,358.1 L462.0,353.7 L467.6,269.5 L473.3,318.3 L479.0,331.5 L484.6,265.1 L490.3,313.8
		L496.0,309.4 L501.6,344.8 L507.3,353.7 L513.0,265.1 L518.6,340.4 L524.3,322.7 L530.0,353.7 L535.7,327.1
		L541.3,336.0 L547.0,353.7 L552.7,300.5 L558.3,362.5 L564.0,371.4 L569.7,367.0 L575.3,309.4 L581.0,322.7
		L586.7,322.7 L592.3,305.0 L598.0,322.7 L603.7,322.7 L609.3,331.5 L615.0,300.5  '/></g>
	</g>
	<g id="gnuplot_plot_2" ><title>pages+cached</title>
<g fill="none" color="black" stroke="currentColor" stroke-width="1.00" stroke-linecap="butt" stroke-linejoin="miter">
	<g transform="translate(275.6,485.9)" stroke="none" fill="black" font-family="Arial" font-size="12.00"  text-anchor="end">
		<text><tspan font-family="Arial" >pages+cached</tspan></text>
	</g>
</g>
<g fill="none" color="black" stroke="currentColor" stroke-width="1.00" stroke-linecap="butt" stroke-linejoin="miter">
	<path stroke='rgb(  0, 158, 115)'  d='M283.9,482.0 L326.1,482.0 M53.9,340.4 L59.6,287.3 L65.2,371.4 L70.9,291.7 L76.6,313.8 L82.2,127.8
		L87.9,420.1 L93.6,291.7 L99.2,398.0 L104.9,296.1 L110.6,420.1 L116.2,406.8 L121.9,287.3 L127.6,163.3
		L133.2,309.4 L138.9,291.7 L144.6,402.4 L150.3,296.1 L155.9,300.5 L161.6,406.8 L167.3,287.3 L172.9,287.3
		L178.6,287.3 L184.3,384.7 L189.9,278.4 L195.6,247.4 L201.3,398.0 L206.9,291.7 L212.6,300.5 L218.3,398.0
		L223.9,274.0 L229.6,384.7 L235.3,402.4 L240.9,406.8 L246.6,411.3 L252.3,260.7 L257.9,327.1 L263.6,52.6
		L269.3,358.1 L274.9,358.1 L280.6,296.1 L286.3,309.4 L291.9,287.3 L297.6,203.1 L303.3,393.5 L308.9,265.1
		L314.6,411.3 L320.3,380.3 L325.9,402.4 L331.6,291.7 L337.3,411.3 L343.0,181.0 L348.6,406.8 L354.3,393.5
		L360.0,287.3 L365.6,384.7 L371.3,384.7 L377.0,384.7 L382.6,291.7 L388.3,296.1 L394.0,411.3 L399.6,384.7
		L405.3,402.4 L411.0,367.0 L416.6,282.8 L422.3,274.0 L428.0,411.3 L433.6,300.5 L439.3,380.3 L445.0,402.4
		L450.6,402.4 L456.3,393.5 L462.0,247.4 L467.6,313.8 L473.3,300.5 L479.0,389.1 L484.6,336.0 L490.3,389.1
		L496.0,402.4 L501.6,305.0 L507.3,269.5 L513.0,305.0 L518.6,287.3 L524.3,402.4 L530.0,389.1 L535.7,411.3
		L541.3,402.4 L547.0,402.4 L552.7,393.5 L558.3,406.8 L564.0,287.3 L569.7,398.0 L575.3,406.8 L581.0,402.4
		L586.7,296.1 L592.3,402.4 L598.0,402.4 L603.7,393.5 L609.3,282.8 L615.0,282.8  '/></g>
	</g>
	<g id="gnuplot_plot_3" ><title>score p10=130</title>
<g fill="none" color="black" stroke="currentColor" stroke-width="1.00" stroke-linecap="butt" stroke-linejoin="miter">
	<g transform="translate(467.2,467.9)" stroke="none" fill="black" font-family="Arial" font-size="12.00"  text-anchor="end">
		<text><tspan font-family="Arial" >score p10=130</tspan></text>
	</g>
</g>
<g fill="none" color="black" stroke="currentColor" stroke-width="1.00" stroke-linecap="butt" stroke-linejoin="miter">
	<path stroke='rgb( 86, 180, 233)'  d='M475.5,464.0 L517.7,464.0  '/></g>
	</g>
	<g id="gnuplot_plot_4" ><title>score median=250</title>
<g fill="none" color="black" stroke="currentColor" stroke-width="1.00" stroke-linecap="butt" stroke-linejoin="miter">
	<g transform="translate(467.2,485.9)" stroke="none" fill="black" font-family="Arial" font-size="12.00"  text-anchor="end">
		<text><tspan font-family="Arial" >score median=250</tspan></text>
	</g>
</g>
<g fill="none" color="black" stroke="currentColor" stroke-width="1.00" stroke-linecap="butt" stroke-linejoin="miter">
	<path stroke='rgb(230, 159,   0)'  d='M475.5,482.0 L517.7,482.0  '/></g>
	</g>
<g fill="none" color="#FFFFFF" stroke="rgb(230, 159,   0)" stroke-width="2.00" stroke-linecap="butt" stroke-linejoin="miter">
</g>
<g fill="none" color="black" stroke="currentColor" stroke-width="2.00" stroke-linecap="butt" stroke-linejoin="miter">
</g>
<g fill="none" color="black" stroke="black" stroke-width="1.00" stroke-linecap="butt" stroke-linejoin="miter">
</g>
<g fill="none" color="black" stroke="currentColor" stroke-width="1.00" stroke-linecap="butt" stroke-linejoin="miter">
	<path stroke='black'  d='M53.9,18.1 L53.9,428.0 L615.0,428.0 L615.0,18.1 L53.9,18.1 Z  '/></g>
<g fill="none" color="black" stroke="currentColor" stroke-width="1.00" stroke-linecap="butt" stroke-linejoin="miter">
</g>
</g>
</svg>
